images/service-burger.svg

<svg width="75" height="72" viewBox="0 0 75 72" fill="none" xmlns="http://www.w3.org/2000/svg">
<path d="M71.0757 47.7H5.1103C2.80452 47.7 1 49.6 1 52V55.5C1 57.9 2.90477 59.8 5.1103 59.8H6.01257V60.9C6.01257 66.4 10.3234 71 15.6367 71H60.3488C65.6621 71 69.9729 66.5 69.9729 60.9V59.8H70.8752C73.181 59.8 74.9855 57.9 74.9855 55.5V52C75.186 49.7 73.2812 47.7 71.0757 47.7ZM67.1659 60.9C67.1659 64.8 64.1583 67.9 60.449 67.9H15.6367C11.9274 67.9 8.91985 64.7 8.91985 60.9V59.8H67.1659V60.9ZM72.2787 55.5C72.2787 56.2 71.6772 56.8 71.0757 56.8H5.01005C4.30829 56.8 3.80704 56.2 3.80704 55.5V52C3.80704 51.3 4.40855 50.7 5.01005 50.7H70.9754C71.6772 50.7 72.1784 51.3 72.1784 52C72.2787 52 72.2787 55.5 72.2787 55.5Z" fill="#83B3D3"/>
<path d="M16.6392 39.4L22.0528 43.5L27.3661 39.4L32.6794 43.5L37.9927 39.4L43.4063 43.5L48.7196 39.4L54.0329 43.5L59.4465 39.4L64.7598 43.5L70.9754 38.8L69.2711 36.3L64.7598 39.7L59.4465 35.6L54.0329 39.7L48.7196 35.6L43.4063 39.7L37.9927 35.6L32.6794 39.7L27.3661 35.6L22.0528 39.7L16.6392 35.6L11.3259 39.7L6.81458 36.3L5.1103 38.8L11.3259 43.5L16.6392 39.4Z" fill="#83B3D3"/>
<path d="M9.02011 32.5H69.9729C69.9729 31.9 70.0732 31.3 70.0732 30.6C70.0732 30.2 70.0732 29.8 70.0732 29.4C69.3714 13.7 55.3362 1 38.093 1C20.7495 1 6.71432 13.7 6.01257 29.5C6.01257 29.9 6.01257 30.3 6.01257 30.7C6.01257 31.3 6.00815 31.9 6.1084 32.5H9.02011ZM38.093 4C53.7322 4 66.5644 15.3 67.1659 29.5H9.02011C9.62161 15.4 22.4538 4 38.093 4Z" fill="#83B3D3"/>
<path d="M38.093 18.3C39.145 18.3 39.9978 17.4046 39.9978 16.3C39.9978 15.1954 39.145 14.3 38.093 14.3C37.041 14.3 36.1882 15.1954 36.1882 16.3C36.1882 17.4046 37.041 18.3 38.093 18.3Z" fill="#83B3D3"/>
<path d="M30.2734 13.2C31.3254 13.2 32.1782 12.3046 32.1782 11.2C32.1782 10.0954 31.3254 9.2 30.2734 9.2C29.2214 9.2 28.3686 10.0954 28.3686 11.2C28.3686 12.3046 29.2214 13.2 30.2734 13.2Z" fill="#83B3D3"/>
<path d="M45.8123 13.2C46.8643 13.2 47.7171 12.3046 47.7171 11.2C47.7171 10.0954 46.8643 9.2 45.8123 9.2C44.7604 9.2 43.9076 10.0954 43.9076 11.2C43.9076 12.3046 44.7604 13.2 45.8123 13.2Z" fill="#83B3D3"/>
</svg>

<svg width="75" height="72" viewBox="0 0 75 72" fill="none" xmlns="http://www.w3.org/2000/svg"><path d="M71.08 47.7h-65.97c-2.3 0-4.11 1.9-4.11 4.3v3.5c0 2.4 1.9 4.3 4.11 4.3h.9v1.1c0 5.5 4.31 10.1 9.63 10.1h44.7c5.32 0 9.63-4.5 9.63-10.1v-1.1h.9c2.31 0 4.12-1.9 4.12-4.3v-3.5a4 4 0 0 0-3.91-4.3Zm-3.91 13.2c0 3.9-3.01 7-6.72 7h-44.81c-3.71 0-6.72-3.2-6.72-7v-1.1h58.25v1.1Zm5.1-5.4c0 .7-.6 1.3-1.2 1.3h-66.06c-.7 0-1.2-.6-1.2-1.3v-3.5c0-.7.6-1.3 1.2-1.3h65.97c.7 0 1.2.6 1.2 1.3.1 0 .1 3.5.1 3.5Zm-55.63-16.1 5.41 4.1 5.32-4.1 5.3 4.1 5.32-4.1 5.42 4.1 5.31-4.1 5.31 4.1 5.42-4.1 5.31 4.1 6.22-4.7-1.7-2.5-4.52 3.4-5.31-4.1-5.42 4.1-5.31-4.1-5.31 4.1-5.42-4.1-5.31 4.1-5.31-4.1-5.32 4.1-5.41-4.1-5.31 4.1-4.52-3.4-1.7 2.5 6.22 4.7 5.3-4.1Zm-7.62-6.9h60.95c0-.6.1-1.2.1-1.9v-1.2c-.7-15.7-14.73-28.4-31.98-28.4-17.34 0-31.38 12.7-32.08 28.5v1.2c0 .6 0 1.2.1 1.8h2.91Zm29.07-28.5c15.64 0 28.47 11.3 29.08 25.5h-58.15c.6-14.1 13.43-25.5 29.07-25.5Z" fill="#83B3D3"/><path d="M38.1 18.3c1.05 0 1.9-.9 1.9-2s-.85-2-1.9-2c-1.06 0-1.91.9-1.91 2s.85 2 1.9 2Zm-7.83-5.1c1.06 0 1.9-.9 1.9-2s-.84-2-1.9-2c-1.05 0-1.9.9-1.9 2s.85 2 1.9 2Zm15.54 0c1.05 0 1.9-.9 1.9-2s-.85-2-1.9-2c-1.05 0-1.9.9-1.9 2s.85 2 1.9 2Z" fill="#83B3D3"/></svg>
